img/icons/try-block/icon-conference.svg

<svg width="100" height="100" viewBox="0 0 100 100" fill="none" xmlns="http://www.w3.org/2000/svg">
<path d="M55.9819 83H42.6987V83.3614H55.9819V83Z" stroke="#3B4A58"/>
<path d="M51.6446 78.0359H36.4639L38.7229 74.1504H60.0482L62.3072 78.0359H53.1807" stroke="#3B4A58"/>
<path d="M84.4457 39.006V66.747H14.3252V22.0181H48.5722" stroke="#3B4A58"/>
<path d="M80.6507 39.0062V62.8616H18.1206V25.9038H48.5724" stroke="#C47A2C"/>
<path d="M8 81.1144H90.7711M8 84.9999V80.8433L14.2349 70.1807H84.7169L90.7711 81.024V84.9999H8Z" stroke="#3B4A58"/>
<path d="M40.9819 53.6445V34.3071L57.6988 43.9758L40.9819 53.6445Z" fill="#F9B974" stroke="#C47A2C"/>
<path d="M88.0599 25.0905L85.4394 34.1266L85.3491 34.3977C84.9876 35.6628 76.4936 36.3856 67.0057 33.7652C57.4274 31.1447 50.5599 26.0844 50.831 24.729L50.9214 24.3676L53.1804 15.6929" stroke="#3B4A58"/>
<path d="M45.3198 10.7229L73.2415 10L96.9162 25H95.9222L87.6993 25.2711L68.9945 25.8133L53.1813 15.6928L45.3198 10.7229Z" stroke="#3B4A58"/>
</svg>

<svg width="100" height="100" fill="none" xmlns="http://www.w3.org/2000/svg"><path d="M55.982 83H42.699v.361h13.283V83zm-4.337-4.964H36.464l2.259-3.886h21.325l2.26 3.886H53.18m31.266-39.03v27.741h-70.12V22.018h34.246" stroke="#3B4A58"/><path d="M80.65 39.006v23.856H18.12V25.904h30.452" stroke="#C47A2C"/><path d="M8 81.114h82.771M8 85v-4.157l6.235-10.662h70.482l6.054 10.843V85H8z" stroke="#3B4A58"/><path d="M40.982 53.645V34.306l16.717 9.669-16.717 9.669z" fill="#F9B974" stroke="#C47A2C"/><path d="M88.06 25.09l-2.62 9.037-.09.27c-.362 1.266-8.856 1.989-18.344-.632-9.579-2.62-16.446-7.68-16.175-9.036l.09-.361 2.26-8.675" stroke="#3B4A58"/><path d="M45.32 10.723L73.242 10l23.674 15h-.994l-8.223.271-18.704.542-15.814-10.12-7.861-4.97z" stroke="#3B4A58"/></svg>
